proprietary/assets/logo/ggd-amsterdam.svg

<svg width="115" height="40" viewBox="0 0 115 40" fill="none" xmlns="http://www.w3.org/2000/svg">
<path d="M16.4355 8.58109C16.4355 4.82907 19.0646 2.18113 22.779 2.18113C24.665 2.18113 26.2453 2.79021 27.3694 4.00952L25.7315 5.571C25.0272 4.79026 24.0172 4.33287 22.8167 4.33287C20.5685 4.33287 19.007 6.08484 19.007 8.58109C19.007 11.0773 20.5309 12.9046 22.7214 12.9046C24.7215 12.9046 26.1125 11.7617 26.1125 10.1049V9.78159H23.1224V7.70511H28.6275V9.62874C28.6275 12.7905 26.1701 15.0198 22.6462 15.0198C19.1223 15.0198 16.4367 12.3531 16.4367 8.58109H16.4355Z" fill="black"/>
<path d="M30.3407 8.58109C30.3407 4.82907 32.9698 2.18113 36.6842 2.18113C38.5702 2.18113 40.1505 2.79021 41.2746 4.00952L39.6367 5.571C38.9324 4.79026 37.9223 4.33287 36.7218 4.33287C34.4737 4.33287 32.9122 6.08484 32.9122 8.58109C32.9122 11.0773 34.4361 12.9046 36.6266 12.9046C38.6266 12.9046 40.0176 11.7617 40.0176 10.1049V9.78159H37.0275V7.70511H42.5327V9.62874C42.5327 12.7905 40.0753 15.0198 36.5513 15.0198C33.0274 15.0198 30.3419 12.3531 30.3419 8.58109H30.3407Z" fill="black"/>
<path d="M44.8361 2.40924H49.4453C53.2549 2.40924 55.7888 4.88551 55.7888 8.5999C55.7888 12.3143 53.1985 14.7906 49.4265 14.7906H44.8361V2.40924ZM49.2548 12.6388C51.6358 12.6388 53.1973 11.0962 53.1973 8.61989C53.1973 6.14363 51.6735 4.56216 49.2736 4.56216H47.35V12.6388H49.2548Z" fill="black"/>
<path d="M23.7303 25.2671L28.6828 37.6484H26.0349L25.006 34.924H19.5009L18.472 37.6484H15.9193L20.8719 25.2671H23.7303ZM20.244 32.8675H24.2441L22.2629 27.6481H22.2252L20.244 32.8675Z" fill="#EC0000"/>
<path d="M32.4548 28.2395V29.5153H32.4924C32.9686 28.5441 33.807 28.0102 34.8923 28.0102C36.1116 28.0102 37.0252 28.544 37.5966 29.6105C38.1681 28.5817 39.2157 28.0102 40.5491 28.0102C42.8725 28.0102 43.9966 29.306 43.9966 31.9539V37.6496H41.6344V32.3537C41.6344 30.811 41.1006 30.0679 39.9965 30.0679C38.8924 30.0679 38.3009 30.8874 38.3009 32.4301V37.6496H35.9387V32.3537C35.9387 30.7922 35.4249 30.0679 34.3008 30.0679C33.1768 30.0679 32.6053 30.9063 32.6053 32.4301V37.6496H30.2431V28.2395H32.4548Z" fill="#EC0000"/>
<path d="M48.3412 33.7059C47.0655 33.3249 45.8273 32.6394 45.8273 30.9251C45.8273 29.2107 47.2748 28.0102 49.4277 28.0102C50.8751 28.0102 51.9992 28.5241 52.6282 29.4765L51.2761 30.8287C50.7998 30.2384 50.152 29.9139 49.4477 29.9139C48.6481 29.9139 48.1519 30.276 48.1519 30.8475C48.1519 31.6094 48.9515 31.7423 50.1143 32.1044C51.3901 32.4854 52.6282 33.1709 52.6282 34.8852C52.6282 36.5995 51.1044 37.8753 48.8562 37.8753C47.39 37.8753 46.2083 37.3615 45.5228 36.3891L46.875 35.0369C47.3888 35.646 48.0755 35.9705 48.8374 35.9705C49.7522 35.9705 50.3037 35.5895 50.3037 34.9605C50.3037 34.1985 49.5041 34.0657 48.3412 33.7035V33.7059Z" fill="#EC0000"/>
<path d="M55.1221 34.2773V30.2008H53.503V28.2383H54.3602C55.141 28.2383 55.4455 27.9338 55.4455 27.1531V25.6868H57.4644V28.2395H59.7501V30.2019H57.4644V34.2785C57.4644 35.1933 57.9406 35.7071 58.8165 35.7071C59.0835 35.7071 59.4068 35.6695 59.5973 35.6119V37.5931C59.3116 37.6695 58.7777 37.726 58.3592 37.726C56.2262 37.726 55.121 36.5455 55.121 34.2785L55.1221 34.2773Z" fill="#EC0000"/>
<path d="M60.9118 32.9439C60.9118 30.0291 62.8743 28.0102 65.6739 28.0102C68.4735 28.0102 70.4171 30.0103 70.4171 32.8863C70.4171 33.1144 70.3795 33.4766 70.3407 33.7247H63.2929C63.4645 35.0004 64.5498 35.8576 65.9408 35.8576C66.9696 35.8576 67.8644 35.4767 68.4547 34.7911L69.8833 36.1821C69.0261 37.2874 67.5399 37.8777 65.8256 37.8777C62.9307 37.8777 60.9107 35.84 60.9107 32.9439H60.9118ZM63.2929 31.9915H68.0361C67.8832 30.7534 66.9308 29.915 65.6551 29.915C64.3793 29.915 63.4269 30.7534 63.2929 31.9915Z" fill="#EC0000"/>
<path d="M74.6077 28.2395V29.801H74.6453C75.1027 28.7345 75.9411 28.1631 77.0452 28.1631C77.3309 28.1631 77.7307 28.2007 77.8835 28.2583V30.5065C77.6166 30.4301 77.1028 30.3736 76.7218 30.3736C75.5213 30.3736 74.7406 31.2884 74.7406 32.697V37.6495H72.3784V28.2395H74.6077Z" fill="#EC0000"/>
<path d="M78.5514 32.9827C78.5514 30.0679 80.475 28.0114 83.1994 28.0114C84.4563 28.0114 85.4852 28.564 86.133 29.5729H86.1707V23.8396H88.5329V37.6495H86.3047V36.1833H86.2671C85.658 37.2498 84.5151 37.8788 83.2006 37.8788C80.4762 37.8788 78.5526 35.8411 78.5526 32.9839L78.5514 32.9827ZM86.1707 32.9451C86.1707 31.2496 85.123 30.1255 83.5804 30.1255C82.0377 30.1255 80.9712 31.2684 80.9712 32.9451C80.9712 34.6218 82.0189 35.7647 83.5804 35.7647C85.1418 35.7647 86.1707 34.6406 86.1707 32.9451Z" fill="#EC0000"/>
<path d="M90.3413 34.9628C90.3413 33.1532 91.8463 32.068 94.3602 32.048L96.1886 32.0292V31.7246C96.1886 30.6194 95.4843 30.0479 94.2074 30.0479C93.369 30.0479 92.6259 30.3713 92.1121 30.9627L90.6834 29.5717C91.503 28.5617 92.8164 28.0102 94.4355 28.0102C96.9494 28.0102 98.5496 29.3812 98.5496 31.5718V35.305C98.5496 35.6483 98.7025 35.8 99.0835 35.8H99.2551V37.6472H98.1498C97.2551 37.6472 96.6448 37.2286 96.4543 36.5419H96.4167C95.8264 37.3991 94.8552 37.8753 93.6735 37.8753C91.6923 37.8753 90.3401 36.6948 90.3401 34.9605L90.3413 34.9628ZM96.1886 34.1433V33.6095L94.6271 33.6283C93.389 33.6471 92.7223 34.0857 92.7223 34.904C92.7223 35.6283 93.2937 36.1422 94.0933 36.1422C95.3314 36.1422 96.1886 35.3226 96.1886 34.1421V34.1433Z" fill="#EC0000"/>
<path d="M103.313 28.2395V29.5153H103.35C103.827 28.5441 104.665 28.0102 105.75 28.0102C106.97 28.0102 107.883 28.544 108.455 29.6105C109.026 28.5817 110.074 28.0102 111.407 28.0102C113.731 28.0102 114.855 29.306 114.855 31.9539V37.6496H112.492V32.3537C112.492 30.811 111.959 30.0679 110.855 30.0679C109.75 30.0679 109.159 30.8874 109.159 32.4301V37.6496H106.797V32.3537C106.797 30.7922 106.283 30.0679 105.159 30.0679C104.035 30.0679 103.463 30.9063 103.463 32.4301V37.6496H101.101V28.2395H103.313Z" fill="#EC0000"/>
<path d="M0 37.6484L3.52744 34.1209L0 30.5935L2.35163 28.2419L5.87907 31.7693L9.40651 28.2419L11.7581 30.5935L8.23069 34.1209L11.7581 37.6484L9.40651 40L5.87907 36.4726L2.35163 40L0 37.6484Z" fill="#EC0000"/>
<path d="M0 23.5398L3.52744 20.0123L0 16.4849L2.35163 14.1333L5.87907 17.6607L9.40651 14.1333L11.7581 16.4849L8.23069 20.0123L11.7581 23.5398L9.40651 25.8914L5.87907 22.364L2.35163 25.8914L0 23.5398Z" fill="#EC0000"/>
<path d="M0 9.40651L3.52744 5.87907L0 2.35163L2.35163 0L5.87907 3.52744L9.40651 0L11.7581 2.35163L8.23069 5.87907L11.7581 9.40651L9.40651 11.7581L5.87907 8.23069L2.3528 11.7581L0 9.40651Z" fill="#EC0000"/>
</svg>

<svg xmlns="http://www.w3.org/2000/svg" fill="none" viewBox="0 0 115 40">
  <title>GGD Amsterdam</title>
  <path fill="#000" d="M16.436 8.581c0-3.752 2.629-6.4 6.343-6.4 1.886 0 3.466.61 4.59 1.829L25.732 5.57c-.705-.78-1.715-1.238-2.915-1.238-2.248 0-3.81 1.752-3.81 4.248 0 2.496 1.524 4.324 3.714 4.324 2 0 3.392-1.143 3.392-2.8v-.323h-2.99V7.705h5.505V9.63c0 3.162-2.458 5.39-5.982 5.39s-6.21-2.666-6.21-6.438ZM30.34 8.581c0-3.752 2.63-6.4 6.344-6.4 1.886 0 3.467.61 4.59 1.829L39.638 5.57c-.705-.78-1.715-1.238-2.915-1.238-2.248 0-3.81 1.752-3.81 4.248 0 2.496 1.524 4.324 3.715 4.324 2 0 3.39-1.143 3.39-2.8v-.323h-2.99V7.705h5.506V9.63c0 3.162-2.458 5.39-5.982 5.39s-6.21-2.666-6.21-6.438ZM44.836 2.41h4.61c3.809 0 6.343 2.476 6.343 6.19 0 3.714-2.59 6.19-6.363 6.19h-4.59V2.41Zm4.419 10.229c2.38 0 3.942-1.543 3.942-4.02 0-2.475-1.524-4.057-3.923-4.057H47.35v8.077h1.905Z"/>
  <path fill="#EC0000" d="m23.73 25.267 4.953 12.381h-2.648l-1.029-2.724h-5.505l-1.029 2.724h-2.553l4.953-12.38h2.858Zm-3.486 7.6h4l-1.981-5.219h-.038l-1.981 5.22ZM32.455 28.24v1.275h.037c.477-.97 1.315-1.505 2.4-1.505 1.22 0 2.133.534 2.705 1.6.571-1.028 1.619-1.6 2.952-1.6 2.324 0 3.448 1.296 3.448 3.944v5.696h-2.363v-5.296c0-1.543-.533-2.286-1.638-2.286-1.104 0-1.695.82-1.695 2.362v5.22h-2.362v-5.296c0-1.562-.514-2.286-1.638-2.286-1.124 0-1.696.838-1.696 2.362v5.22h-2.362v-9.41h2.212ZM48.341 33.706c-1.276-.381-2.514-1.067-2.514-2.78 0-1.715 1.448-2.916 3.6-2.916 1.448 0 2.572.514 3.201 1.466l-1.352 1.353c-.476-.59-1.124-.915-1.828-.915-.8 0-1.296.362-1.296.933 0 .762.8.895 1.962 1.257 1.276.381 2.514 1.067 2.514 2.781 0 1.715-1.524 2.99-3.772 2.99-1.466 0-2.648-.514-3.333-1.486l1.352-1.352c.514.609 1.2.934 1.962.934.915 0 1.467-.381 1.467-1.01 0-.762-.8-.895-1.963-1.258v.003ZM55.122 34.277v-4.076h-1.619v-1.963h.857c.781 0 1.086-.304 1.086-1.085v-1.466h2.018v2.552h2.286v1.963h-2.286v4.076c0 .915.477 1.43 1.352 1.43.267 0 .59-.038.781-.096v1.981c-.285.076-.82.133-1.238.133-2.133 0-3.238-1.18-3.238-3.447l.001-.002ZM60.912 32.944c0-2.915 1.962-4.934 4.762-4.934s4.743 2 4.743 4.876c0 .228-.038.59-.076.839h-7.048c.172 1.275 1.257 2.133 2.648 2.133 1.029 0 1.923-.381 2.514-1.067l1.428 1.391c-.857 1.105-2.343 1.696-4.057 1.696-2.895 0-4.915-2.038-4.915-4.934Zm2.38-.953h4.744c-.153-1.238-1.105-2.076-2.38-2.076-1.277 0-2.23.838-2.363 2.076ZM74.608 28.24V29.8h.037c.458-1.066 1.296-1.638 2.4-1.638.286 0 .686.038.838.095v2.248c-.266-.076-.78-.132-1.161-.132-1.2 0-1.981.914-1.981 2.323v4.953h-2.363v-9.41h2.23ZM78.551 32.983c0-2.915 1.924-4.972 4.648-4.972 1.257 0 2.286.553 2.934 1.562h.038V23.84h2.362v13.81h-2.228v-1.467h-.038c-.609 1.067-1.752 1.696-3.066 1.696-2.725 0-4.648-2.038-4.648-4.895l-.002-.001Zm7.62-.038c0-1.695-1.048-2.82-2.59-2.82-1.543 0-2.61 1.143-2.61 2.82 0 1.677 1.048 2.82 2.61 2.82 1.56 0 2.59-1.124 2.59-2.82ZM90.341 34.963c0-1.81 1.505-2.895 4.02-2.915l1.828-.019v-.304c0-1.106-.705-1.677-1.982-1.677-.838 0-1.581.323-2.095.915l-1.429-1.391c.82-1.01 2.133-1.562 3.752-1.562 2.514 0 4.115 1.371 4.115 3.562v3.733c0 .343.153.495.534.495h.171v1.847H98.15c-.895 0-1.505-.418-1.696-1.105h-.037c-.59.857-1.562 1.333-2.743 1.333-1.982 0-3.334-1.18-3.334-2.914l.001.002Zm5.848-.82v-.534l-1.562.02c-1.238.018-1.905.457-1.905 1.275 0 .724.572 1.238 1.371 1.238 1.238 0 2.096-.82 2.096-2v.001ZM103.313 28.24v1.275h.037c.477-.97 1.315-1.505 2.4-1.505 1.22 0 2.133.534 2.705 1.6.571-1.028 1.619-1.6 2.952-1.6 2.324 0 3.448 1.296 3.448 3.944v5.696h-2.363v-5.296c0-1.543-.533-2.286-1.637-2.286-1.105 0-1.696.82-1.696 2.362v5.22h-2.362v-5.296c0-1.562-.514-2.286-1.638-2.286-1.124 0-1.696.838-1.696 2.362v5.22h-2.362v-9.41h2.212ZM0 37.648l3.527-3.527L0 30.593l2.352-2.351 3.527 3.527 3.528-3.527 2.351 2.351-3.527 3.528 3.527 3.527L9.407 40l-3.528-3.527L2.352 40 0 37.648ZM0 23.54l3.527-3.528L0 16.485l2.352-2.352 3.527 3.528 3.528-3.528 2.351 2.352-3.527 3.527 3.527 3.528-2.351 2.351-3.528-3.527-3.527 3.527L0 23.54ZM0 9.407l3.527-3.528L0 2.352 2.352 0l3.527 3.527L9.407 0l2.351 2.352-3.527 3.527 3.527 3.528-2.351 2.351-3.528-3.527-3.526 3.527L0 9.407Z"/>
</svg>
